assets/images/whatsup.svg

<svg width="48" height="48" viewBox="0 0 48 48" fill="none" xmlns="http://www.w3.org/2000/svg">
<circle cx="24" cy="24" r="24" fill="#25D366"/>
<path d="M31.6695 16.2657C29.6221 14.2253 26.8921 13.0918 24.0106 13.0918C18.0199 13.0918 13.1667 17.9282 13.1667 23.898C13.1667 25.7873 13.6975 27.6765 14.6074 29.2634L13.0908 34.8554L18.854 33.3441C20.4465 34.1753 22.1906 34.6287 24.0106 34.6287C30.0012 34.6287 34.8545 29.7924 34.8545 23.8225C34.7786 21.0265 33.717 18.306 31.6695 16.2657ZM29.2429 27.752C29.0154 28.3566 27.9538 28.9611 27.423 29.0367C26.968 29.1122 26.3613 29.1123 25.7547 28.9611C25.3755 28.81 24.8447 28.6588 24.238 28.3566C21.5081 27.223 19.764 24.5026 19.6123 24.2759C19.4607 24.1248 18.4749 22.8401 18.4749 21.4799C18.4749 20.1196 19.1573 19.5151 19.3848 19.2128C19.6123 18.9105 19.9157 18.9105 20.1431 18.9105C20.2948 18.9105 20.5223 18.9105 20.674 18.9105C20.8256 18.9105 21.0531 18.835 21.2806 19.364C21.5081 19.8929 22.0389 21.2532 22.1148 21.3287C22.1906 21.4799 22.1906 21.631 22.1148 21.7821C22.0389 21.9333 21.9631 22.0844 21.8114 22.2355C21.6598 22.3867 21.5081 22.6134 21.4323 22.689C21.2806 22.8401 21.129 22.9912 21.2806 23.2179C21.4323 23.5202 21.9631 24.3515 22.7972 25.1071C23.8589 26.014 24.693 26.3162 24.9964 26.4674C25.2997 26.6185 25.4513 26.5429 25.603 26.3918C25.7547 26.2407 26.2855 25.6361 26.4372 25.3338C26.5888 25.0316 26.8163 25.1071 27.0438 25.1827C27.2713 25.2583 28.6363 25.9384 28.8638 26.0895C29.1671 26.2407 29.3188 26.3162 29.3946 26.3918C29.4704 26.6185 29.4704 27.1475 29.2429 27.752Z" fill="white"/>
</svg>

<svg width="48" height="48" fill="none" xmlns="http://www.w3.org/2000/svg"><circle cx="24" cy="24" r="24" fill="#25D366"/><path d="M31.67 16.266a10.807 10.807 0 0 0-7.66-3.174c-5.99 0-10.843 4.836-10.843 10.806 0 1.89.53 3.779 1.44 5.365l-1.516 5.592 5.763-1.51a11.088 11.088 0 0 0 5.157 1.284c5.99 0 10.844-4.837 10.844-10.806-.076-2.797-1.138-5.517-3.185-7.557Zm-2.427 11.486c-.228.605-1.29 1.21-1.82 1.285a4.253 4.253 0 0 1-1.668-.076c-.38-.151-.91-.302-1.517-.604-2.73-1.134-4.474-3.854-4.626-4.081-.151-.151-1.137-1.436-1.137-2.796 0-1.36.682-1.965.91-2.267.227-.303.53-.303.758-.303h.531c.152 0 .38-.075.607.454.227.529.758 1.89.834 1.965a.48.48 0 0 1 0 .453c-.076.151-.152.302-.304.453-.151.152-.303.378-.379.454-.151.151-.303.302-.151.529.151.302.682 1.134 1.516 1.89 1.062.906 1.896 1.208 2.2 1.36.303.15.454.075.606-.076.152-.151.682-.756.834-1.058.152-.302.38-.227.607-.151.227.075 1.592.755 1.82.907.303.15.455.226.53.302.076.227.076.756-.151 1.36Z" fill="#fff"/></svg>
